svg/u1f3ca_1f3fd_200d_2640.svg

<svg viewBox="0 0 128 128" xmlns="http://www.w3.org/2000/svg">
  <defs>
    <linearGradient id="SVGID_1_" gradientTransform="matrix(1 0 0 -1 0 0)" gradientUnits="userSpaceOnUse" x1="47.1165" x2="47.1165" y1="-32.5969" y2="-73.3412">
      <stop offset="0" stop-color="#BA8D68"/>
      <stop offset="1" stop-color="#A47B62"/>
    </linearGradient>
    <linearGradient id="SVGID_2_" gradientTransform="matrix(1 0 0 -1 0 0)" gradientUnits="userSpaceOnUse" x1="46.721" x2="113.15" y1="-96.028" y2="-96.028">
      <stop offset="0" stop-color="#651FFF"/>
      <stop offset="0.7047" stop-color="#5914F2"/>
      <stop offset="1" stop-color="#530EEB"/>
    </linearGradient>
    <linearGradient id="SVGID_9_" gradientTransform="matrix(1 0 0 -1 0 0)" gradientUnits="userSpaceOnUse" x1="21.0165" x2="34.3917" y1="-62.9149" y2="-70.3167">
      <stop offset="0" stop-color="#651FFF"/>
      <stop offset="0.7047" stop-color="#5914F2"/>
      <stop offset="1" stop-color="#530EEB"/>
    </linearGradient>
  </defs>
  <path d="M21.18,42.61 L32.9,40.52 C34.47,40.17 35.47,38.62 35.12,37.05 L35.12,37.05 C34.77,35.48 33.22,34.48 31.65,34.83 L20.04,38.06 C18.47,38.41 17.41,39.44 17.75,41.01 L17.75,41.01 C18.1,42.58 19.61,42.96 21.18,42.61 Z" fill="#91674D"/>
  <path d="M89.53,70.79 C84.42,68.38 79.88,64.75 76.39,60.29 L59.64,38.85 C58.63,37.19 57.04,36.04 55.15,35.59 C55.07,35.57 54.99,35.56 54.91,35.54 L54.92,35.47 L20.64,32.48 C19.57,32.39 18.5,32.5 17.47,32.82 L12.15,34.48 C11.45,34.7 10.78,35.01 10.15,35.41 C8.91,36.2 6.68,37.67 5.65,38.57 C5.08,39.07 4.7,39.58 4.7,40.49 C4.7,41.23 5,41.89 5.56,42.35 C6.17,42.86 7.03,43.06 7.91,42.9 C9.02,42.7 10.25,41.63 11.09,40.77 C11.32,40.53 11.62,40.38 11.95,40.34 L17.58,39.6 C18.01,39.54 18.43,39.56 18.83,39.65 C19.58,39.82 20.46,39.97 21.49,40.16 C22.82,40.4 24.48,40.69 26.42,41.12 C28.82,41.65 46.67,47.41 46.84,47.46 C48.05,47.88 49.11,48.69 49.82,49.76 L56.54,59.86 C59.07,63.66 59.04,68.67 56.48,72.33 L56.38,72.47 C53.67,76.38 50.44,83.3 49.19,87.9 C46.5,97.77 48.13,104.19 54.06,106.99 L76.91,117.78 L89.53,70.79 Z" fill="url(#SVGID_1_)"/>
  <path d="M63.04,113.5 L82.78,122.85 L85.12,123.95 L94.36,123.95 L113.15,84.31 L84.8,68.1 C77.1,76.38 59.43,69.66 58.04,68.98 C57.79,69.58 57.43,70.11 57.07,70.73 C68.26,79.71 64.78,87.24 64.78,87.24 C64.75,87.3 61.11,94.71 47.14,91.76 C46.98,92.45 46.84,93.14 46.73,93.81 C48.13,94.47 64.56,102.29 63.04,113.5 Z" fill="url(#SVGID_2_)"/>
  <path d="M61.14,87.92 L61.14,87.92 C63.03,85.07 62.25,81.23 59.4,79.34 L54.99,76.42 L48.16,86.74 L52.57,89.66 C55.41,91.55 59.25,90.77 61.14,87.92 Z" fill="#99674F"/>
  <path id="hear" d="M19.95,60.96 C19.95,60.96 20.08,60.75 20.14,60.66 C20.2,60.57 20.34,60.36 20.34,60.36 C28.34,49.78 36.12,51.51 40.86,53.67 C46,56 49.57,58.09 49.57,58.09 C49.57,58.09 49.26,58.15 48.76,58.31 C48.24,58.49 47.81,58.78 47.81,58.78 L51.35,61.97 L40.71,60.49 C40.64,60.48 40.58,60.51 40.55,60.57 L39.29,63.03 C38.02,65.5 36.61,67.9 35.09,70.22 L35.1,70.22 C35.03,70.32 34.97,70.42 34.9,70.52 C34.83,70.62 34.77,70.72 34.7,70.82 L34.69,70.82 C33.15,73.13 31.49,75.36 29.71,77.5 L27.94,79.62 C27.9,79.67 27.89,79.74 27.93,79.8 L33.45,89.02 L29.13,87 C29.13,87 29.02,87.51 29.06,88.06 C29.1,88.58 29.17,88.89 29.17,88.89 C29.17,88.89 25.49,86.54 21.55,82.5 C17.82,78.67 13.5,72.14 19.95,60.96 Z" fill="#6D4C41"/>
  <path id="ears" d="M52.1,58.71 C49.41,56.93 47.33,59.14 47.33,59.14 L46.57,60.29 L30.06,85.22 L29.3,86.37 C29.3,86.37 28.08,89.15 30.77,90.93 C33.14,92.5 35.28,91.3 36.49,89.48 L53,64.54 C54.2,62.72 54.47,60.28 52.1,58.71 Z" fill="#99674F"/>
  <path d="M20.71,61.1 C27.83,50.34 38.04,53.05 49.75,60.81 C61.9,68.85 59.87,78.74 56.05,84.51 C52.29,90.19 44.01,96.06 31.78,87.96 C20.06,80.19 13.59,71.86 20.71,61.1 Z" fill="#BA8D68"/>
  <path d="M44.07,62.65 L44.07,62.65 C44.07,62.65 42.01,62.6 40.58,64.73 C39.15,66.86 39.98,68.75 39.98,68.75 L39.98,68.75 C40.03,68.89 40.13,69.03 40.27,69.12 C40.62,69.35 41.09,69.26 41.33,68.91 C41.38,68.84 41.45,68.62 41.45,68.6 C41.78,66.97 42.45,65.97 42.45,65.97 C42.45,65.97 43.12,64.98 44.5,64.06 C44.52,64.05 44.69,63.91 44.74,63.84 C44.97,63.49 44.88,63.02 44.53,62.78 C44.38,62.68 44.22,62.64 44.07,62.65 Z" fill="#613E31"/>
  <path d="M35.18,75.91 L35.18,75.91 C35.18,75.91 33.12,75.86 31.69,77.99 C30.26,80.12 31.09,82.01 31.09,82.01 L31.09,82.01 C31.14,82.15 31.24,82.29 31.38,82.38 C31.73,82.61 32.2,82.52 32.44,82.17 C32.49,82.1 32.56,81.88 32.56,81.86 C32.89,80.23 33.56,79.23 33.56,79.23 C33.56,79.23 34.23,78.24 35.61,77.32 C35.63,77.31 35.8,77.17 35.85,77.1 C36.08,76.75 35.99,76.28 35.64,76.04 C35.49,75.94 35.33,75.9 35.18,75.91 Z" fill="#613E31"/>
  <path d="M40.21,76.18 C42.05,77.42 42.51,79.96 40.38,83.11 C38.28,86.22 35.72,86.79 33.88,85.55 C32.04,84.31 31.11,81.63 33.32,78.37 C35.46,75.19 38.37,74.94 40.21,76.18 Z" fill="#01579B"/>
  <path id="SVGID_3_" d="M39.267,77.606 C40.614,78.522 40.714,80.724 39.491,82.523 C38.267,84.322 36.183,85.038 34.835,84.122 C33.488,83.206 33.388,81.004 34.612,79.205 C35.836,77.406 37.92,76.69 39.267,77.606 Z" fill="#B3E5FC"/>
  <path d="M37.403,77.254 L39.969,81.653 C39.842,81.949 39.682,82.241 39.491,82.523 C39.245,82.884 38.965,83.201 38.664,83.47 L35.562,78.152 C36.134,77.674 36.775,77.366 37.403,77.254 Z" fill="#FFFFFF"/>
  <path d="M48.44,64.01 C50.28,65.25 50.74,67.79 48.61,70.94 C46.51,74.05 43.95,74.62 42.11,73.38 C40.27,72.14 39.24,69.51 41.44,66.25 C43.59,63.07 46.6,62.77 48.44,64.01 Z" fill="#01579B"/>
  <path id="SVGID_5_" d="M47.499,65.429 C48.846,66.346 48.946,68.547 47.722,70.346 C46.498,72.146 44.414,72.862 43.067,71.945 C41.72,71.029 41.62,68.828 42.843,67.028 C44.067,65.229 46.151,64.513 47.499,65.429 Z" fill="#B3E5FC"/>
  <path d="M45.635,65.077 L48.201,69.477 C48.074,69.772 47.914,70.064 47.722,70.346 C47.476,70.709 47.195,71.027 46.892,71.297 L43.79,65.978 C44.363,65.499 45.006,65.189 45.635,65.077 Z" fill="#FFFFFF"/>
  <path d="M43.49,73.6 L40.94,77.37 L39.06,76.1 L41.61,72.33 Z" fill="#01579B"/>
  <path d="M48.23,59.86 C49.49,61.36 49.59,63.24 49.19,65.16 L47.31,63.9 C48.02,62.34 47.88,60.57 46.35,58.6 L48.23,59.86 Z" fill="#01579B"/>
  <path d="M29.96,86.91 C31.83,87.51 33.61,86.9 35.24,85.8 L33.36,84.54 C32.18,85.79 30.48,86.32 28.08,85.65 L29.96,86.91 Z" fill="#01579B"/>
  <path d="M18.1,59.1 C18.1,59.1 17.95,59.31 17.89,59.4 C17.83,59.49 17.7,59.7 17.7,59.7 C10.69,71.39 16.28,79.7 20.39,83.15 C24.95,86.98 29.04,88.82 29.04,88.82 C29.04,88.82 28.96,88.5 28.91,87.98 C28.85,87.42 28.95,86.91 28.95,86.91 C28.95,86.91 27.51,81.37 28.23,76.82 C28.97,72.17 34.02,64.61 37.53,62.39 C41.25,60.04 43.4,59.01 47.77,58.76 C47.77,58.76 48.21,58.47 48.75,58.3 C49.26,58.14 49.58,58.09 49.58,58.09 C49.58,58.09 46.18,55.26 40.94,52.41 C36.96,50.25 26.61,47.98 18.1,59.1 Z" fill="url(#SVGID_9_)"/>
  <path id="nose" d="M46.61,76.09 C46.57,76.12 46.53,76.16 46.49,76.2 L44.65,79.1 C44.63,79.15 44.61,79.2 44.6,79.25 C44.54,79.58 44.72,79.9 45.09,79.96 C45.46,80.02 46.64,79.96 47.38,78.79 C48.12,77.63 47.67,76.53 47.46,76.22 C47.25,75.92 46.88,75.89 46.61,76.09 Z" fill="#99674F"/>
  <path id="mouth" d="M52.39,78.42 C53.242,79.06 53.076,80.721 52.019,82.13 C50.961,83.539 49.413,84.162 48.561,83.523 C47.708,82.883 47.874,81.222 48.932,79.813 C49.989,78.404 51.537,77.78 52.39,78.42 Z" fill="#5D4037"/>
  <path id="water_x5F_top" d="M112,81.98 C105.43,81.98 102.07,89.17 96,89.17 C89.94,89.17 86.57,81.98 80,81.98 C73.43,81.98 70.07,89.17 64,89.17 C57.93,89.17 54.57,81.98 48,81.98 C41.43,81.98 38.06,89.17 32,89.17 C25.94,89.17 22.57,81.98 16,81.98 C10.99,81.98 7.84,86.16 3.94,88.14 L3.94,123.96 L123.94,123.96 L123.94,88.08 C120.11,86.08 116.97,81.98 112,81.98 Z" fill="#039BE5"/>
  <path id="water_x5F_bottom" d="M111.97,105.69 C105.4,105.69 102.04,98.5 95.97,98.5 C89.91,98.5 86.54,105.69 79.97,105.69 C73.4,105.69 70.04,98.5 63.97,98.5 C57.9,98.5 54.54,105.69 47.97,105.69 C41.4,105.69 38.03,98.5 31.97,98.5 C25.91,98.5 22.54,105.69 15.97,105.69 C10.97,105.69 7.83,101.53 3.94,99.54 L3.94,123.95 L123.94,123.95 L123.94,99.56 C120.1,101.56 116.95,105.69 111.97,105.69 Z" fill="#29B6F6"/>
</svg>

<svg viewBox="0 0 128 128" xmlns="http://www.w3.org/2000/svg" xmlns:xlink="http://www.w3.org/1999/xlink">
  <g id="tone">
    <path d="M21.18,42.61l11.72-2.09c1.57-0.35,2.57-1.9,2.22-3.47l0,0c-0.35-1.57-1.9-2.57-3.47-2.22 l-11.61,3.23c-1.57,0.35-2.63,1.38-2.29,2.95l0,0C18.1,42.58,19.61,42.96,21.18,42.61z" fill="#91674D"/>
  </g>
  <g id="body">
    <linearGradient id="SVGID_1_" gradientTransform="matrix(1 0 0 -1 0 128)" gradientUnits="userSpaceOnUse" x1="47.1165" x2="47.1165" y1="95.4031" y2="54.6588">
      <stop offset="0" stop-color="#BA8D68"/>
      <stop offset="1" stop-color="#A47B62"/>
    </linearGradient>
    <path d="M89.53,70.79c-5.11-2.41-9.65-6.04-13.14-10.5L59.64,38.85c-1.01-1.66-2.6-2.81-4.49-3.26 c-0.08-0.02-0.16-0.03-0.24-0.05l0.01-0.07l-34.28-2.99c-1.07-0.09-2.14,0.02-3.17,0.34l-5.32,1.66c-0.7,0.22-1.37,0.53-2,0.93 c-1.24,0.79-3.47,2.26-4.5,3.16c-0.57,0.5-0.95,1.01-0.95,1.92c0,0.74,0.3,1.4,0.86,1.86c0.61,0.51,1.47,0.71,2.35,0.55 c1.11-0.2,2.34-1.27,3.18-2.13c0.23-0.24,0.53-0.39,0.86-0.43l5.63-0.74c0.43-0.06,0.85-0.04,1.25,0.05 c0.75,0.17,1.63,0.32,2.66,0.51c1.33,0.24,2.99,0.53,4.93,0.96c2.4,0.53,20.25,6.29,20.42,6.34c1.21,0.42,2.27,1.23,2.98,2.3 l6.72,10.1c2.53,3.8,2.5,8.81-0.06,12.47l-0.1,0.14c-2.71,3.91-5.94,10.83-7.19,15.43c-2.69,9.87-1.06,16.29,4.87,19.09 l22.85,10.79L89.53,70.79z" fill="url(#SVGID_1_)"/>
  </g>
  <g id="swimming_x5F_suit">
    <linearGradient id="SVGID_2_" gradientTransform="matrix(1 0 0 -1 0 128)" gradientUnits="userSpaceOnUse" x1="46.721" x2="113.15" y1="31.972" y2="31.972">
      <stop offset="0" stop-color="#651FFF"/>
      <stop offset="0.7047" stop-color="#5914F2"/>
      <stop offset="1" stop-color="#530EEB"/>
    </linearGradient>
    <path d="M63.04,113.5l19.74,9.35l2.34,1.1h9.24l18.79-39.64L84.8,68.1 c-7.7,8.28-25.37,1.56-26.76,0.88c-0.25,0.6-0.61,1.13-0.97,1.75c11.19,8.98,7.71,16.51,7.71,16.51 c-0.03,0.06-3.67,7.47-17.64,4.52c-0.16,0.69-0.3,1.38-0.41,2.05C48.13,94.47,64.56,102.29,63.04,113.5z" fill="url(#SVGID_2_)"/>
  </g>
  <g id="neck">
    <path d="M61.14,87.92L61.14,87.92c1.89-2.85,1.11-6.69-1.74-8.58l-4.41-2.92l-6.83,10.32l4.41,2.92 C55.41,91.55,59.25,90.77,61.14,87.92z" fill="#99674F"/>
  </g>
  <path id="hear" d="M19.95,60.96c0,0,0.13-0.21,0.19-0.3c0.06-0.09,0.2-0.3,0.2-0.3 c8-10.58,15.78-8.85,20.52-6.69c5.14,2.33,8.71,4.42,8.71,4.42s-0.31,0.06-0.81,0.22c-0.52,0.18-0.95,0.47-0.95,0.47l3.54,3.19 l-10.64-1.48c-0.07-0.01-0.13,0.02-0.16,0.08l-1.26,2.46c-1.27,2.47-2.68,4.87-4.2,7.19l0.01,0c-0.07,0.1-0.13,0.2-0.2,0.3 c-0.07,0.1-0.13,0.2-0.2,0.3l-0.01,0c-1.54,2.31-3.2,4.54-4.98,6.68l-1.77,2.12c-0.04,0.05-0.05,0.12-0.01,0.18l5.52,9.22 l-4.32-2.02c0,0-0.11,0.51-0.07,1.06c0.04,0.52,0.11,0.83,0.11,0.83s-3.68-2.35-7.62-6.39C17.82,78.67,13.5,72.14,19.95,60.96z" fill="#6D4C41"/>
  <path id="ears" d="M52.1,58.71c-2.69-1.78-4.77,0.43-4.77,0.43l-0.76,1.15L30.06,85.22l-0.76,1.15 c0,0-1.22,2.78,1.47,4.56c2.37,1.57,4.51,0.37,5.72-1.45L53,64.54C54.2,62.72,54.47,60.28,52.1,58.71z" fill="#99674F"/>
  <g id="head">
    <path d="M20.71,61.1c7.12-10.76,17.33-8.05,29.04-0.29c12.15,8.04,10.12,17.93,6.3,23.7 c-3.76,5.68-12.04,11.55-24.27,3.45C20.06,80.19,13.59,71.86,20.71,61.1z" fill="#BA8D68"/>
  </g>
  <g id="eyebrows_1_">
    <path d="M44.07,62.65L44.07,62.65c0,0-2.06-0.05-3.49,2.08c-1.43,2.13-0.6,4.02-0.6,4.02h0 c0.05,0.14,0.15,0.28,0.29,0.37c0.35,0.23,0.82,0.14,1.06-0.21c0.05-0.07,0.12-0.29,0.12-0.31c0.33-1.63,1-2.63,1-2.63 s0.67-0.99,2.05-1.91c0.02-0.01,0.19-0.15,0.24-0.22c0.23-0.35,0.14-0.82-0.21-1.06C44.38,62.68,44.22,62.64,44.07,62.65z" fill="#613E31"/>
    <path d="M35.18,75.91L35.18,75.91c0,0-2.06-0.05-3.49,2.08c-1.43,2.13-0.6,4.02-0.6,4.02h0 c0.05,0.14,0.15,0.28,0.29,0.37c0.35,0.23,0.82,0.14,1.06-0.21c0.05-0.07,0.12-0.29,0.12-0.31c0.33-1.63,1-2.63,1-2.63 s0.67-0.99,2.05-1.91c0.02-0.01,0.19-0.15,0.24-0.22c0.23-0.35,0.14-0.82-0.21-1.06C35.49,75.94,35.33,75.9,35.18,75.91z" fill="#613E31"/>
  </g>
  <g id="swimming_x5F_goggles">
    <g>
      <g>
        <path d="M40.21,76.18c1.84,1.24,2.3,3.78,0.17,6.93c-2.1,3.11-4.66,3.68-6.5,2.44 c-1.84-1.24-2.77-3.92-0.56-7.18C35.46,75.19,38.37,74.94,40.21,76.18z" fill="#01579B"/>
        <g>
          <ellipse id="SVGID_3_" cx="37.05" cy="80.86" fill="#B3E5FC" rx="3.94" ry="2.95" transform="matrix(0.5624 -0.8269 0.8269 0.5624 -50.6489 66.0249)"/>
          <g>
            <defs>
              <ellipse id="SVGID_4_" cx="37.05" cy="80.86" rx="3.94" ry="2.95" transform="matrix(0.5624 -0.8269 0.8269 0.5624 -50.6489 66.0249)"/>
            </defs>
            <clipPath id="SVGID_6_">
              <use overflow="visible" xlink:href="#SVGID_4_"/>
            </clipPath>
            <polygon clip-path="url(#SVGID_6_)" fill="#FFFFFF" points="39.97,85.71 35.24,77.6 35.82,74.54 40.55,82.65 "/>
          </g>
        </g>
      </g>
      <g>
        <path d="M48.44,64.01c1.84,1.24,2.3,3.78,0.17,6.93c-2.1,3.11-4.66,3.68-6.5,2.44 c-1.84-1.24-2.87-3.87-0.67-7.13C43.59,63.07,46.6,62.77,48.44,64.01z" fill="#01579B"/>
        <g>
          <ellipse id="SVGID_5_" cx="45.28" cy="68.69" fill="#B3E5FC" rx="3.94" ry="2.95" transform="matrix(0.5624 -0.8269 0.8269 0.5624 -36.9824 67.4982)"/>
          <g>
            <defs>
              <ellipse id="SVGID_7_" cx="45.28" cy="68.69" rx="3.94" ry="2.95" transform="matrix(0.5624 -0.8269 0.8269 0.5624 -36.9824 67.4982)"/>
            </defs>
            <clipPath id="SVGID_8_">
              <use overflow="visible" xlink:href="#SVGID_7_"/>
            </clipPath>
            <polygon clip-path="url(#SVGID_8_)" fill="#FFFFFF" points="48.2,73.54 43.47,65.43 44.05,62.36 48.78,70.47 "/>
          </g>
        </g>
      </g>
    </g>
    <polygon fill="#01579B" points="43.49,73.6 40.94,77.37 39.06,76.1 41.61,72.33 "/>
    <g>
      <path d="M48.23,59.86c1.26,1.5,1.36,3.38,0.96,5.3l-1.88-1.26c0.71-1.56,0.57-3.33-0.96-5.3L48.23,59.86z" fill="#01579B"/>
      <path d="M29.96,86.91c1.87,0.6,3.65-0.01,5.28-1.11l-1.88-1.26c-1.18,1.25-2.88,1.78-5.28,1.11L29.96,86.91 z" fill="#01579B"/>
    </g>
  </g>
  <g id="swimming_x5F_cap">
    <linearGradient id="SVGID_9_" gradientTransform="matrix(1 0 0 -1 0 128)" gradientUnits="userSpaceOnUse" x1="21.0165" x2="34.3917" y1="65.0851" y2="57.6833">
      <stop offset="0" stop-color="#651FFF"/>
      <stop offset="0.7047" stop-color="#5914F2"/>
      <stop offset="1" stop-color="#530EEB"/>
    </linearGradient>
    <path d="M18.1,59.1c0,0-0.15,0.21-0.21,0.3c-0.06,0.09-0.19,0.3-0.19,0.3 c-7.01,11.69-1.42,20,2.69,23.45c4.56,3.83,8.65,5.67,8.65,5.67s-0.08-0.32-0.13-0.84c-0.06-0.56,0.04-1.07,0.04-1.07 s-1.44-5.54-0.72-10.09c0.74-4.65,5.79-12.21,9.3-14.43c3.72-2.35,5.87-3.38,10.24-3.63c0,0,0.44-0.29,0.98-0.46 c0.51-0.16,0.83-0.21,0.83-0.21s-3.4-2.83-8.64-5.68C36.96,50.25,26.61,47.98,18.1,59.1z" fill="url(#SVGID_9_)"/>
  </g>
  <path id="nose" d="M46.61,76.09c-0.04,0.03-0.08,0.07-0.12,0.11l-1.84,2.9c-0.02,0.05-0.04,0.1-0.05,0.15 c-0.06,0.33,0.12,0.65,0.49,0.71c0.37,0.06,1.55,0,2.29-1.17c0.74-1.16,0.29-2.26,0.08-2.57C47.25,75.92,46.88,75.89,46.61,76.09z" fill="#99674F"/>
  <ellipse id="mouth" cx="50.48" cy="80.97" fill="#5D4037" rx="3.19" ry="1.93" transform="matrix(0.6002 -0.7998 0.7998 0.6002 -44.5827 72.747)"/>
  <path id="water_x5F_top" d="M112,81.98c-6.57,0-9.93,7.19-16,7.19c-6.06,0-9.43-7.19-16-7.19 s-9.93,7.19-16,7.19s-9.43-7.19-16-7.19s-9.94,7.19-16,7.19s-9.43-7.19-16-7.19c-5.01,0-8.16,4.18-12.06,6.16v35.82h120V88.08 C120.11,86.08,116.97,81.98,112,81.98z" fill="#039BE5"/>
  <path id="water_x5F_bottom" d="M111.97,105.69c-6.57,0-9.93-7.19-16-7.19c-6.06,0-9.43,7.19-16,7.19 s-9.93-7.19-16-7.19s-9.43,7.19-16,7.19s-9.94-7.19-16-7.19s-9.43,7.19-16,7.19c-5,0-8.14-4.16-12.03-6.15v24.41h120V99.56 C120.1,101.56,116.95,105.69,111.97,105.69z" fill="#29B6F6"/>
</svg>
